svgs/sharp-light/arrow-progress.svg

<svg xmlns="http://www.w3.org/2000/svg" viewBox="0 0 512 512"><!--! Font Awesome Pro 6.6.0 by @fontawesome - https://fontawesome.com License - https://fontawesome.com/license (Commercial License) Copyright 2024 Fonticons, Inc. --><path d="M416 32l0 64 64 0 0-64-64 0zM384 0l32 0 64 0 32 0 0 32 0 64 0 32-32 0-64 0-32 0 0-32 0-64 0-32zM286 1.5l12.3 10.2 48 40L361 64 346.2 76.3l-48 40L286 126.5 265.5 102l12.3-10.2 14-11.7L32 80l0 160 464 0 16 0 0 16 0 192 0 16-16 0-80 0 0 16 0 32-32 0-64 0-32 0 0-32 0-64 0-32 32 0 64 0 32 0 0 32 0 16 64 0 0-160L16 272 0 272l0-16L0 64 0 48l16 0 275.8 0-14-11.7L265.5 26 286 1.5zM128 416l0 16 67.8 0-14.1-11.7L169.5 410 190 385.5l12.3 10.2 48 40L265 448l-14.7 12.3-48 40L190 510.5 169.5 486l12.3-10.2L195.8 464 128 464l0 16 0 32-32 0-64 0L0 512l0-32 0-64 0-32 32 0 64 0 32 0 0 32zm-32 0l-64 0 0 64 64 0 0-64zm224 0l0 64 64 0 0-64-64 0z"/></svg>

<svg xmlns="http://www.w3.org/2000/svg" viewBox="0 0 512 512"><!--! Font Awesome Pro 6.4.0 by @fontawesome - https://fontawesome.com License - https://fontawesome.com/license (Commercial License) Copyright 2023 Fonticons, Inc. --><path d="M416 32V96h64V32H416zM384 0h32 64 32V32 96v32H480 416 384V96 32 0zM286 1.5l12.3 10.2 48 40L361 64 346.2 76.3l-48 40L286 126.5 265.5 102l12.3-10.2 14-11.7H32V240H496h16v16V448v16H496 416v16 32H384 320 288V480 416 384h32 64 32v32 16h64V272H16 0V256 64 48H16 291.8l-14-11.7L265.5 26 286 1.5zM128 416v16h67.8l-14.1-11.7L169.5 410 190 385.5l12.3 10.2 48 40L265 448l-14.7 12.3-48 40L190 510.5 169.5 486l12.3-10.2L195.8 464H128v16 32H96 32 0V480 416 384H32 96h32v32zm-32 0H32v64H96V416zm224 0v64h64V416H320z"/></svg>
